X: 3662
T: Billy Ballantine's
R: hornpipe
M: 4/4
K: Dmajor
f2af gfed|BcdB BAFA|~A2AF ABde|~f2e2 e2de|
f2af gfed|BcdB BAFA|~A2AF ABde|~f2ec d3e:|
f2f2 f2ef|g2g2 g2fg|a2ab afde|feed eede|
f2af gfed|BcdB BAFA|~A2AF ABde|~f2ec d3e:|

